images/pencil-button.svg

<svg width="20" height="20" viewBox="0 0 20 20" fill="none" xmlns="http://www.w3.org/2000/svg">
<path fill-rule="evenodd" clip-rule="evenodd" d="M13.1585 3.05991L16.9401 6.84154L6.72705 17.0546L2.73544 17.8529C2.38557 17.9229 2.07711 17.6144 2.14709 17.2646L2.94541 13.273L13.1585 3.05991ZM4.17707 13.9321L13.1585 4.95072L15.0493 6.84154L6.06789 15.8229L3.70436 16.2956L4.17707 13.9321Z" fill="#CB11AB"/>
<path fill-rule="evenodd" clip-rule="evenodd" d="M15.9948 7.78715L12.2132 4.00552L13.6313 2.5874C14.4145 1.8042 15.6843 1.8042 16.4675 2.5874L17.4129 3.53281C18.1961 4.31601 18.1961 5.58584 17.4129 6.36904L15.9948 7.78715ZM16.4675 5.42363C16.7286 5.16256 16.7286 4.73929 16.4675 4.47822L15.5221 3.53281C15.261 3.27174 14.8378 3.27174 14.5767 3.53281L14.104 4.00552L15.9948 5.89634L16.4675 5.42363Z" fill="#CB11AB"/>
</svg>

<svg width="20" height="20" fill="none" xmlns="http://www.w3.org/2000/svg"><path fill-rule="evenodd" clip-rule="evenodd" d="m13.159 3.06 3.781 3.782L6.727 17.055l-3.992.798a.5.5 0 0 1-.588-.588l.798-3.992L13.16 3.06zM4.177 13.932l8.982-8.981 1.89 1.89-8.981 8.982-2.364.473.473-2.364z" fill="#CB11AB"/><path fill-rule="evenodd" clip-rule="evenodd" d="m15.995 7.787-3.782-3.781 1.418-1.419a2.005 2.005 0 0 1 2.837 0l.945.946a2.006 2.006 0 0 1 0 2.836l-1.418 1.418zm.473-2.363a.668.668 0 0 0 0-.946l-.946-.945a.668.668 0 0 0-.945 0l-.473.473 1.89 1.89.474-.472z" fill="#CB11AB"/></svg>
